X:13
T:Lester Stubbert's
R:clog
C:Brenda Stubbert, SOCAN
O:20th century Cape Breton
S:Tune of the Month, April 1999
A:<http://www.capebretonet.com/Music/Stubbert>
N:Composed for PEI guitarist Lester Stubbert
N:Contacts ...
N:Recordings and bookings
N:..... <brenda@cranfordpub.com
N:Tune books and related recordings
N:..... Cranford Publications <http://www.cranfordpub.com>
H:Copyrights:Published by Stubbert Music
Z:This abc transcription is for personal use only,
Z:provided this notice remains attached.
Z:Used by permission of the composer and publisher.
Z:Paul Stewart Cranford 
Q:288
L:1/8
M:C
K:D
FG|(3ABA F>G A>dd>c|B>GB<d g2 f2|e>Ac>e a>ec>e|(3dcd (3fdB A2 F>G|!
(3ABA F>G A>dd>c|B>GB<d g2 f2|e>Ac>e a>ec>e|d2 f2 d2:|!
K:A
|:c>d|(3efe c>d e>aa>f|e>fe>d c2 B>c|d>BG>B E>BG>B|c>Ac>d e2 c>d|!
(3efe c>d e>aa>f|e>fe>d c2 B>c|d>BG>B E>BG>B|A2 c2 A2:|!
